Numix-Light-GalliumOS/16/panel/copy-sync6.svg

<?xml version="1.0" encoding="UTF-8" standalone="no"?>
<!-- Generator: Adobe Illustrator 15.1.0, SVG Export Plug-In . SVG Version: 6.00 Build 0)  -->

<svg
   xmlns:dc="http://purl.org/dc/elements/1.1/"
   xmlns:cc="http://creativecommons.org/ns#"
   xmlns:rdf="http://www.w3.org/1999/02/22-rdf-syntax-ns#"
   xmlns:svg="http://www.w3.org/2000/svg"
   xmlns="http://www.w3.org/2000/svg"
   xmlns:sodipodi="http://sodipodi.sourceforge.net/DTD/sodipodi-0.dtd"
   xmlns:inkscape="http://www.inkscape.org/namespaces/inkscape"
   version="1.1"
   id="Layer_1"
   x="0px"
   y="0px"
   width="16"
   height="16"
   viewBox="0 0 16 16"
   enable-background="new 0 0 24 24"
   xml:space="preserve"
   inkscape:version="0.91 r"
   sodipodi:docname="copy-sync6.svg"><metadata
     id="metadata29"><rdf:RDF><cc:Work
         rdf:about=""><dc:format>image/svg+xml</dc:format><dc:type
           rdf:resource="http://purl.org/dc/dcmitype/StillImage" /><dc:title /></cc:Work></rdf:RDF></metadata><defs
     id="defs27" /><sodipodi:namedview
     pagecolor="#ffffff"
     bordercolor="#666666"
     borderopacity="1"
     objecttolerance="10"
     gridtolerance="10"
     guidetolerance="10"
     inkscape:pageopacity="0"
     inkscape:pageshadow="2"
     inkscape:window-width="1366"
     inkscape:window-height="747"
     id="namedview25"
     showgrid="false"
     inkscape:zoom="6.9532168"
     inkscape:cx="14.910158"
     inkscape:cy="-2.9073561"
     inkscape:window-x="0"
     inkscape:window-y="21"
     inkscape:window-maximized="1"
     inkscape:current-layer="Layer_1" /><polygon
     points="16.033,8.347 22.172,0.866 22.76,1.286 18.162,10.28 "
     id="polygon17"
     style="opacity:0.4;fill:#353535;fill-opacity:1"
     transform="matrix(0.64210641,0,0,0.64213625,0.29472305,0.534845)" /><path
     style="fill:#353535;fill-opacity:1"
     d="m 3.6818345,7.1360056 -2.5908994,0.8636737 0,-0.8636737 2.5908994,-2.2481189 0.862991,0.5201303 2.9883636,7.351176 -2.1240884,1.285557 z"
     id="polygon19"
     inkscape:connector-curvature="0" /><path
     style="opacity:1;fill:#353535;fill-opacity:1"
     d="M 12.96589,10.325818 12.318166,8.8633524 11.45389,7.9996793 9.2000971,9.801834 l -2.2537936,1.802155 0.5868856,1.155204 1.778795,0.537468 1.7787949,0.537468 1.778795,0.537468"
     id="polyline21"
     inkscape:connector-curvature="0"
     sodipodi:nodetypes="ccccccccc" /><path
     d="M 7.6397781,9.7263833 6.2907128,7.1360056 8.0000001,6.2723324 c 0.862991,0 2.5896149,0.8636732 2.5896149,0.8636732 L 7.6397781,9.7263833 Z"
     id="path23"
     inkscape:connector-curvature="0"
     style="opacity:1;fill:#353535;fill-opacity:1" /><path
     style="opacity:0.4;fill:#353535;fill-opacity:1"
     d="M 14.908947,14.713214 12.318048,8.8633524 11.453773,7.9996793 9.1999801,9.8018347 6.9461859,11.60399 l 0.5868852,1.155203 1.778795,0.537468 1.7787959,0.537468 3.55759,1.074936 0.236937,0"
     id="polyline21-2"
     inkscape:connector-curvature="0"
     sodipodi:nodetypes="cccccccccc" /></svg>

<!-- Generator: Adobe Illustrator 15.1.0, SVG Export Plug-In . SVG Version: 6.00 Build 0)  -->
<svg xmlns="http://www.w3.org/2000/svg" viewBox="0 0 16 16" style="enable-background:new 0 0 24 24">
 <polygon points="16.033,8.347 22.172,0.866 22.76,1.286 18.162,10.28 " transform="matrix(0.64210641,0,0,0.64213625,0.29472305,0.534845)" style="fill:#353535;opacity:0.4;fill-opacity:1"/>
 <path d="m 3.682 7.136 -2.591 0.864 0 -0.864 2.591 -2.248 0.863 0.52 2.988 7.351 -2.124 1.286 z" style="fill:#353535;fill-opacity:1"/>
 <path d="m 12.966 10.326 -0.648 -1.462 -0.864 -0.864 -2.254 1.802 l -2.254 1.802 0.587 1.155 1.779 0.537 1.779 0.537 1.779 0.537" style="fill:#353535;opacity:1;fill-opacity:1"/>
 <path d="m 7.64 9.726 -1.349 -2.59 1.709 -0.864 c 0.863 0 2.59 0.864 2.59 0.864 l -2.95 2.59" style="fill:#353535;opacity:1;fill-opacity:1"/>
 <path d="m 14.909 14.713 -2.591 -5.85 -0.864 -0.864 -2.254 1.802 -2.254 1.802 l 0.587 1.155 1.779 0.537 1.779 0.537 3.558 1.075 0.237 0" style="fill:#353535;opacity:0.4;fill-opacity:1"/>
</svg>
